X: 9877
T: Dermot McLoughlin's
R: barndance
M: 4/4
K: Gmajor
|:(3ABc|d>Bd<g b2 b2|a>^ga<b e2- e>g|f<AA>B c2 (3def|(3gba (3gfe d2- d>^c|
d2 d<g b2- b>g|a>^ga>=g e2 e>g|f2 (3GAB c>de>f|1 g2 b2 g2:|2 (3gag f2 g2||
K: Dmaj
|:(3a^ga|f>dA<d f2 a2|e>^de<g B2 ^A>B|c>BG>E c2 (3ABc|(3dfe (3dcB A>a^g>a|
f>d (3FAd f2 f2|e>^de<g b2 ^a>b|c’>bg>e b>a (3gfe|(3ded c2 d2:|

